icon-themes/tango_svg/cmd/lc_numberformatdecdecimals.svg

<svg height="24" width="24" xmlns="http://www.w3.org/2000/svg" xmlns:xlink="http://www.w3.org/1999/xlink"><linearGradient id="a" gradientUnits="userSpaceOnUse" x1="5.000001" x2="5.000001" y1="20.999971" y2="15.999972"><stop offset="0" stop-color="#cc0001"/><stop offset="1" stop-color="#ef292a"/></linearGradient><linearGradient id="b" gradientUnits="userSpaceOnUse" x1="6.04456261209" x2="6.04456261209" y1="1029.89224624948" y2="1032.92850664948"><stop offset="0" stop-color="#fff"/><stop offset="1" stop-color="#fff" stop-opacity="0"/></linearGradient><g transform="matrix(.9880575 0 0 .9880575 1.0276261413 -1000.59275923305)"><path d="m-74.920507 1075.3421c-.000005 1.257-.199004 2.1956-.596996 2.8159-.394685.6202-.999972.9303-1.815863.9303-.78273 0-1.378067-.3168-1.786013-.9502-.407948-.6368-.611922-1.5688-.611921-2.796-.000001-1.2669.19734-2.2072.592021-2.8208.394679-.6136.99665-.9203 1.805913-.9204.789358.0001 1.388011.3201 1.795963.9602.411259.6401.616891 1.5671.616896 2.781m-3.824959 0c-.000001 1.058.124373 1.5292.373123 2.0134.248746.4809.495045.7213 1.038977.7213.55056 0 .888541-.2437 1.133976-.7313.248744-.4908.373118-.9586.373123-2.0034-.000005-1.0447-.124379-1.4759-.373123-1.9601-.245435-.4876-.583416-.7314-1.133976-.7314-.543932 0-.790231.2405-1.038977.7214-.24875.4776-.373124.9121-.373123 1.9701" transform="matrix(1.0539767 0 0 .94878757 100.21725 .953859)"/><path d="m-74.920507 1075.3421c-.000005 1.257-.199004 2.1956-.596996 2.8159-.394685.6202-.999972.9303-1.815863.9303-.78273 0-1.378067-.3168-1.786013-.9502-.407948-.6368-.611922-1.5688-.611921-2.796-.000001-1.2669.19734-2.2072.592021-2.8208.394679-.6136.99665-.9203 1.805913-.9204.789358.0001 1.388011.3201 1.795963.9602.411259.6401.616891 1.5671.616896 2.781m-3.824959 0c-.000001 1.058.124373 1.5292.373123 2.0134.248746.4809.495045.7213 1.038977.7213.55056 0 .888541-.2437 1.133976-.7313.248744-.4908.373118-.9586.373123-2.0034-.000005-1.0447-.124379-1.4759-.373123-1.9601-.245435-.4876-.583416-.7314-1.133976-.7314-.543932 0-.790231.2405-1.038977.7214-.24875.4776-.373124.9121-.373123 1.9701" transform="matrix(1.0539767 0 0 .94878757 94.144729 .953859)"/><path d="m-89.051263 10.49868c0 .256282-.217651.464039-.486136.464039-.268486 0-.486136-.207757-.486136-.464039 0-.256281.21765-.464039.486136-.464039.268485 0 .486136.207758.486136.464039z" transform="matrix(1.0409462 0 0 1.0905242 101.799048 1012.818459)"/><path d="m-74.920507 1075.3421c-.000005 1.257-.199004 2.1956-.596996 2.8159-.394685.6202-.999972.9303-1.815863.9303-.78273 0-1.378067-.3168-1.786013-.9502-.407948-.6368-.611922-1.5688-.611921-2.796-.000001-1.2669.19734-2.2072.592021-2.8208.394679-.6136.99665-.9203 1.805913-.9204.789358.0001 1.388011.3201 1.795963.9602.411259.6401.616891 1.5671.616896 2.781m-3.824959 0c-.000001 1.058.124373 1.5292.373123 2.0134.248746.4809.495045.7213 1.038977.7213.55056 0 .888541-.2437 1.133976-.7313.248744-.4908.373118-.9586.373123-2.0034-.000005-1.0447-.124379-1.4759-.373123-1.9601-.245435-.4876-.583416-.7314-1.133976-.7314-.543932 0-.790231.2405-1.038977.7214-.24875.4776-.373124.9121-.373123 1.9701" transform="matrix(1.0539767 0 0 .94878757 100.183059 11.14646)"/><path d="m-89.051263 10.49868c0 .256282-.217651.464039-.486136.464039-.268486 0-.486136-.207757-.486136-.464039 0-.256281.21765-.464039.486136-.464039.268485 0 .486136.207758.486136.464039z" transform="matrix(1.0409462 0 0 1.0905242 107.837378 1023.01106)"/><rect fill="url(#a)" height="5" rx=".999972" transform="matrix(1.0120868 0 0 1.0120868 -1.040047 1012.6868)" width="13" y="16"/><path d="m-.02795944 1029.8922v3.0363h11.13295444v-3.0363h-11.13295444zm1.0120868 1.0121h9.10878164v1.0121h-9.10878164z" fill="url(#b)" opacity=".3"/><path d="m1 16c-.55398442 0-1 .446016-1 1v3c0 .553984.44601558 1 1 1h11c.553984 0 1-.446016 1-1v-3c0-.553984-.446016-1-1-1zm0 1h11v3h-11z" opacity=".4" transform="matrix(1.0120868 0 0 1.0120868 -1.040047 1012.6868)"/></g></svg>

<?xml version="1.0" encoding="UTF-8" standalone="no"?>
<!-- Created with Inkscape (http://www.inkscape.org/) -->

<svg
   xmlns:dc="http://purl.org/dc/elements/1.1/"
   xmlns:cc="http://creativecommons.org/ns#"
   xmlns:rdf="http://www.w3.org/1999/02/22-rdf-syntax-ns#"
   xmlns:svg="http://www.w3.org/2000/svg"
   xmlns="http://www.w3.org/2000/svg"
   xmlns:xlink="http://www.w3.org/1999/xlink"
   xmlns:sodipodi="http://sodipodi.sourceforge.net/DTD/sodipodi-0.dtd"
   xmlns:inkscape="http://www.inkscape.org/namespaces/inkscape"
   width="24"
   height="24"
   id="svg2"
   version="1.1"
   inkscape:version="0.48.3.1 r9886"
   sodipodi:docname="lc_numberformatincdecimals.svg"
   inkscape:export-filename="/home/alexander/libo/icon-themes/tango_testing/cmd/lc_numberformatincdecimals.png"
   inkscape:export-xdpi="90"
   inkscape:export-ydpi="90">
  <defs
     id="defs4">
    <linearGradient
       inkscape:collect="always"
       id="linearGradient3835">
      <stop
         style="stop-color:#ffffff;stop-opacity:1;"
         offset="0"
         id="stop3837" />
      <stop
         style="stop-color:#ffffff;stop-opacity:0;"
         offset="1"
         id="stop3839" />
    </linearGradient>
    <linearGradient
       id="linearGradient3827">
      <stop
         style="stop-color:#cc0001;stop-opacity:1"
         offset="0"
         id="stop3829" />
      <stop
         style="stop-color:#ef292a;stop-opacity:1"
         offset="1"
         id="stop3831" />
    </linearGradient>
    <linearGradient
       inkscape:collect="always"
       id="linearGradient15426">
      <stop
         style="stop-color:#ffffff;stop-opacity:1;"
         offset="0"
         id="stop15428" />
      <stop
         style="stop-color:#ffffff;stop-opacity:0;"
         offset="1"
         id="stop15430" />
    </linearGradient>
    <linearGradient
       id="linearGradient4731">
      <stop
         style="stop-color:#ffffff;stop-opacity:1;"
         offset="0"
         id="stop4733" />
      <stop
         style="stop-color:#ffffff;stop-opacity:0;"
         offset="1"
         id="stop4735" />
    </linearGradient>
    <linearGradient
       id="linearGradient6881">
      <stop
         style="stop-color:#000000;stop-opacity:1;"
         offset="0"
         id="stop6883" />
      <stop
         style="stop-color:#303030;stop-opacity:1;"
         offset="1"
         id="stop6885" />
    </linearGradient>
    <linearGradient
       inkscape:collect="always"
       id="linearGradient6638">
      <stop
         style="stop-color:#ffffff;stop-opacity:1;"
         offset="0"
         id="stop6640" />
      <stop
         style="stop-color:#ffffff;stop-opacity:0;"
         offset="1"
         id="stop6642" />
    </linearGradient>
    <linearGradient
       id="linearGradient3848-4">
      <stop
         style="stop-color:#51b700;stop-opacity:1;"
         offset="0"
         id="stop3850" />
      <stop
         style="stop-color:#a1f800;stop-opacity:1;"
         offset="1"
         id="stop3852" />
    </linearGradient>
    <linearGradient
       inkscape:collect="always"
       xlink:href="#linearGradient3848-4"
       id="linearGradient4770"
       gradientUnits="userSpaceOnUse"
       gradientTransform="matrix(0,-1,1,0,8.7236111,1069.7409)"
       x1="15"
       y1="18.5"
       x2="24"
       y2="18.5" />
    <linearGradient
       inkscape:collect="always"
       xlink:href="#linearGradient6881"
       id="linearGradient4782"
       gradientUnits="userSpaceOnUse"
       gradientTransform="matrix(1.0807243,0,0,0.95038373,2.4016561,-1021.2751)"
       x1="7.3413663"
       y1="1090.5339"
       x2="15.792633"
       y2="1082.1084" />
    <linearGradient
       inkscape:collect="always"
       xlink:href="#linearGradient4731"
       id="linearGradient4786"
       gradientUnits="userSpaceOnUse"
       gradientTransform="matrix(0.27035376,0,0,0.27035376,4.9813276,1078.6801)"
       x1="16.767418"
       y1="-26.082771"
       x2="3.4383593"
       y2="1.7565804" />
    <linearGradient
       inkscape:collect="always"
       xlink:href="#linearGradient4731"
       id="linearGradient4788"
       gradientUnits="userSpaceOnUse"
       gradientTransform="matrix(0.27035376,0,0,0.27035376,11.714144,1078.6801)"
       x1="16.767418"
       y1="-26.082771"
       x2="3.4383593"
       y2="1.7565804" />
    <linearGradient
       inkscape:collect="always"
       xlink:href="#linearGradient6638"
       id="linearGradient4790"
       gradientUnits="userSpaceOnUse"
       gradientTransform="matrix(0.27035376,0,0,0.27035376,18.44696,1078.6801)"
       x1="16.767418"
       y1="-26.082771"
       x2="3.4383593"
       y2="1.7565804" />
    <linearGradient
       inkscape:collect="always"
       xlink:href="#linearGradient3848-4"
       id="linearGradient15403"
       x1="-7.1125679"
       y1="1038.495"
       x2="6.0445609"
       y2="1038.495"
       gradientUnits="userSpaceOnUse"
       gradientTransform="matrix(0,-1,1,0,-1039.0291,1037.961)" />
    <linearGradient
       inkscape:collect="always"
       xlink:href="#linearGradient3848-4"
       id="linearGradient15412"
       gradientUnits="userSpaceOnUse"
       gradientTransform="matrix(0,-0.9880575,0.9880575,0,-1025.5929,24.972392)"
       x1="-7.1125679"
       y1="1038.495"
       x2="6.0445609"
       y2="1038.495" />
    <linearGradient
       inkscape:collect="always"
       xlink:href="#linearGradient15426"
       id="linearGradient15432"
       x1="-5"
       y1="25.5"
       x2="6"
       y2="25.5"
       gradientUnits="userSpaceOnUse"
       gradientTransform="matrix(0,1.0120868,-1.0120868,0,25.27421,1037.989)" />
    <linearGradient
       inkscape:collect="always"
       xlink:href="#linearGradient3848-4"
       id="linearGradient15456"
       gradientUnits="userSpaceOnUse"
       gradientTransform="matrix(0,-1,1,0,-1039.0291,1037.961)"
       x1="-7.1125679"
       y1="1038.495"
       x2="6.0445609"
       y2="1038.495" />
    <linearGradient
       inkscape:collect="always"
       xlink:href="#linearGradient15426"
       id="linearGradient15458"
       gradientUnits="userSpaceOnUse"
       gradientTransform="matrix(0,1.0120868,-1.0120868,0,25.27421,1037.989)"
       x1="-5"
       y1="25.5"
       x2="6"
       y2="25.5" />
    <linearGradient
       inkscape:collect="always"
       xlink:href="#linearGradient3827"
       id="linearGradient3833"
       x1="5.0000005"
       y1="20.999971"
       x2="5.0000005"
       y2="15.999972"
       gradientUnits="userSpaceOnUse" />
    <linearGradient
       inkscape:collect="always"
       xlink:href="#linearGradient3835"
       id="linearGradient3841"
       x1="7.0000005"
       y1="16.999971"
       x2="7.0000005"
       y2="19.999971"
       gradientUnits="userSpaceOnUse"
       gradientTransform="matrix(1.0120868,0,0,1.0120868,-1.0400462,1012.6868)" />
  </defs>
  <sodipodi:namedview
     id="base"
     pagecolor="#ffffff"
     bordercolor="#666666"
     borderopacity="1.0"
     inkscape:pageopacity="0.0"
     inkscape:pageshadow="2"
     inkscape:zoom="1"
     inkscape:cx="3.0019123"
     inkscape:cy="9.5292136"
     inkscape:document-units="px"
     inkscape:current-layer="g4772"
     showgrid="false"
     inkscape:snap-global="true"
     inkscape:window-width="1366"
     inkscape:window-height="722"
     inkscape:window-x="0"
     inkscape:window-y="24"
     inkscape:window-maximized="1"
     showborder="false"
     inkscape:showpageshadow="false">
    <inkscape:grid
       type="xygrid"
       id="grid6625"
       empspacing="5"
       visible="true"
       enabled="true"
       snapvisiblegridlinesonly="true" />
  </sodipodi:namedview>
  <metadata
     id="metadata7">
    <rdf:RDF>
      <cc:Work
         rdf:about="">
        <dc:format>image/svg+xml</dc:format>
        <dc:type
           rdf:resource="http://purl.org/dc/dcmitype/StillImage" />
        <dc:title></dc:title>
      </cc:Work>
    </rdf:RDF>
  </metadata>
  <g
     inkscape:label="Ebene 1"
     inkscape:groupmode="layer"
     id="layer1"
     transform="translate(0,-1028.3622)">
    <g
       id="g6919">
      <g
         id="g6972"
         transform="matrix(0.9880575,0,0,0.9880575,1.012001,22.769441)">
        <g
           id="g4772"
           transform="translate(0.01581386,5.0604342)">
          <g
             id="g15467"
             transform="translate(100.21725,0.95385877)">
            <g
               transform="scale(1.0539767,0.94878757)"
               style="font-size:10.18873215px;font-style:normal;font-variant:normal;font-weight:normal;font-stretch:normal;line-height:125%;letter-spacing:0px;word-spacing:0px;fill:#000000;fill-opacity:1;stroke:none;font-family:Open Sans;-inkscape-font-specification:Open Sans"
               id="g15469">
              <path
                 d="m -74.920507,1075.3421 c -5e-6,1.257 -0.199004,2.1956 -0.596996,2.8159 -0.394685,0.6202 -0.999972,0.9303 -1.815863,0.9303 -0.78273,0 -1.378067,-0.3168 -1.786013,-0.9502 -0.407948,-0.6368 -0.611922,-1.5688 -0.611921,-2.796 -10e-7,-1.2669 0.19734,-2.2072 0.592021,-2.8208 0.394679,-0.6136 0.99665,-0.9203 1.805913,-0.9204 0.789358,1e-4 1.388011,0.3201 1.795963,0.9602 0.411259,0.6401 0.616891,1.5671 0.616896,2.781 m -3.824959,0 c -1e-6,1.058 0.124373,1.5292 0.373123,2.0134 0.248746,0.4809 0.495045,0.7213 1.038977,0.7213 0.55056,0 0.888541,-0.2437 1.133976,-0.7313 0.248744,-0.4908 0.373118,-0.9586 0.373123,-2.0034 -5e-6,-1.0447 -0.124379,-1.4759 -0.373123,-1.9601 -0.245435,-0.4876 -0.583416,-0.7314 -1.133976,-0.7314 -0.543932,0 -0.790231,0.2405 -1.038977,0.7214 -0.24875,0.4776 -0.373124,0.9121 -0.373123,1.9701"
                 id="path15471"
                 inkscape:connector-curvature="0"
                 sodipodi:nodetypes="ccscsscccccscccscc" />
            </g>
            <g
               id="g15473"
               style="font-size:10.18873215px;font-style:normal;font-variant:normal;font-weight:normal;font-stretch:normal;line-height:125%;letter-spacing:0px;word-spacing:0px;fill:#000000;fill-opacity:1;stroke:none;font-family:Open Sans;-inkscape-font-specification:Open Sans"
               transform="matrix(1.0539767,0,0,0.94878757,-6.0725211,0)">
              <path
                 sodipodi:nodetypes="ccscsscccccscccscc"
                 inkscape:connector-curvature="0"
                 id="path15475"
                 d="m -74.920507,1075.3421 c -5e-6,1.257 -0.199004,2.1956 -0.596996,2.8159 -0.394685,0.6202 -0.999972,0.9303 -1.815863,0.9303 -0.78273,0 -1.378067,-0.3168 -1.786013,-0.9502 -0.407948,-0.6368 -0.611922,-1.5688 -0.611921,-2.796 -10e-7,-1.2669 0.19734,-2.2072 0.592021,-2.8208 0.394679,-0.6136 0.99665,-0.9203 1.805913,-0.9204 0.789358,1e-4 1.388011,0.3201 1.795963,0.9602 0.411259,0.6401 0.616891,1.5671 0.616896,2.781 m -3.824959,0 c -1e-6,1.058 0.124373,1.5292 0.373123,2.0134 0.248746,0.4809 0.495045,0.7213 1.038977,0.7213 0.55056,0 0.888541,-0.2437 1.133976,-0.7313 0.248744,-0.4908 0.373118,-0.9586 0.373123,-2.0034 -5e-6,-1.0447 -0.124379,-1.4759 -0.373123,-1.9601 -0.245435,-0.4876 -0.583416,-0.7314 -1.133976,-0.7314 -0.543932,0 -0.790231,0.2405 -1.038977,0.7214 -0.24875,0.4776 -0.373124,0.9121 -0.373123,1.9701" />
            </g>
            <path
               sodipodi:type="arc"
               style="fill:#000000;fill-opacity:1;stroke:none"
               id="path15477"
               sodipodi:cx="-89.537399"
               sodipodi:cy="10.49868"
               sodipodi:rx="0.4861359"
               sodipodi:ry="0.46403882"
               d="m -89.051263,10.49868 c 0,0.256282 -0.217651,0.464039 -0.486136,0.464039 -0.268486,0 -0.486136,-0.207757 -0.486136,-0.464039 0,-0.256281 0.21765,-0.464039 0.486136,-0.464039 0.268485,0 0.486136,0.207758 0.486136,0.464039 z"
               transform="matrix(1.0409462,0,0,1.0905242,1.5817975,1011.8646)" />
          </g>
          <g
             transform="translate(106.25558,11.14646)"
             id="g15512">
            <g
               transform="matrix(1.0539767,0,0,0.94878757,-6.0725211,0)"
               style="font-size:10.18873215px;font-style:normal;font-variant:normal;font-weight:normal;font-stretch:normal;line-height:125%;letter-spacing:0px;word-spacing:0px;fill:#000000;fill-opacity:1;stroke:none;font-family:Open Sans;-inkscape-font-specification:Open Sans"
               id="g15518">
              <path
                 d="m -74.920507,1075.3421 c -5e-6,1.257 -0.199004,2.1956 -0.596996,2.8159 -0.394685,0.6202 -0.999972,0.9303 -1.815863,0.9303 -0.78273,0 -1.378067,-0.3168 -1.786013,-0.9502 -0.407948,-0.6368 -0.611922,-1.5688 -0.611921,-2.796 -10e-7,-1.2669 0.19734,-2.2072 0.592021,-2.8208 0.394679,-0.6136 0.99665,-0.9203 1.805913,-0.9204 0.789358,1e-4 1.388011,0.3201 1.795963,0.9602 0.411259,0.6401 0.616891,1.5671 0.616896,2.781 m -3.824959,0 c -1e-6,1.058 0.124373,1.5292 0.373123,2.0134 0.248746,0.4809 0.495045,0.7213 1.038977,0.7213 0.55056,0 0.888541,-0.2437 1.133976,-0.7313 0.248744,-0.4908 0.373118,-0.9586 0.373123,-2.0034 -5e-6,-1.0447 -0.124379,-1.4759 -0.373123,-1.9601 -0.245435,-0.4876 -0.583416,-0.7314 -1.133976,-0.7314 -0.543932,0 -0.790231,0.2405 -1.038977,0.7214 -0.24875,0.4776 -0.373124,0.9121 -0.373123,1.9701"
                 id="path15520"
                 inkscape:connector-curvature="0"
                 sodipodi:nodetypes="ccscsscccccscccscc" />
            </g>
            <path
               transform="matrix(1.0409462,0,0,1.0905242,1.5817975,1011.8646)"
               d="m -89.051263,10.49868 c 0,0.256282 -0.217651,0.464039 -0.486136,0.464039 -0.268486,0 -0.486136,-0.207757 -0.486136,-0.464039 0,-0.256281 0.21765,-0.464039 0.486136,-0.464039 0.268485,0 0.486136,0.207758 0.486136,0.464039 z"
               sodipodi:ry="0.46403882"
               sodipodi:rx="0.4861359"
               sodipodi:cy="10.49868"
               sodipodi:cx="-89.537399"
               id="path15522"
               style="fill:#000000;fill-opacity:1;stroke:none"
               sodipodi:type="arc" />
          </g>
          <rect
             style="opacity:1;fill:url(#linearGradient3833);fill-opacity:1;stroke:none"
             id="rect3036"
             width="13"
             height="5"
             x="0"
             y="16"
             transform="matrix(1.0120868,0,0,1.0120868,-1.0400468,1012.6868)"
             rx="0.99997193"
             ry="0.99997193" />
          <path
             style="opacity:0.3;fill:url(#linearGradient3841);fill-opacity:1;stroke:none"
             d="m -0.02795944,1029.8922 0,3.0363 11.13295444,0 0,-3.0363 -11.13295444,0 z m 1.0120868,1.0121 9.10878164,0 0,1.0121 -9.10878164,0 0,-1.0121 z"
             id="rect3038"
             inkscape:connector-curvature="0" />
          <path
             style="opacity:0.4;fill:#000000;fill-opacity:1;stroke:none"
             d="M 1 16 C 0.44601558 16 0 16.446016 0 17 L 0 20 C 7.4014868e-17 20.553984 0.44601558 21 1 21 L 12 21 C 12.553984 21 13 20.553984 13 20 L 13 17 C 13 16.446016 12.553984 16 12 16 L 1 16 z M 1 17 L 12 17 L 12 20 L 1 20 L 1 17 z "
             transform="matrix(1.0120868,0,0,1.0120868,-1.0400468,1012.6868)"
             id="rect3043" />
        </g>
      </g>
    </g>
  </g>
</svg>
